X: 120018
T: The ROSE AMONG THE HEATHER
Q: "Highland Schottische."
R: Schottische.
%R: shottish
B: James Kerr "Merry Melodies" v.1 p.20 s.0 #18
Z: 2017 John Chambers <jc:trillian.mit.edu>
M: C
L: 1/8
K: D
uG |\
vF<uA vA>uF G<B B>G | F<A D>F E3 G |\
F<A A>F vG>vBud>uB | A<F G>E D2-D ::\
uA |\
vd>ve ud>uB (A<f) d>B |
A<F d>f e3 d |\
[1 f>gf>e d<B d>B | A<d e>c d2-d :|\
[2 f>ed>B A<F d>B | A<F G>E D2-D |]

%%sep 1 1 500
%%sep 1 1 500

